**kern	**kern	**dynam
*part1	*part1	*part1
*staff2	*staff1	*
*I"Piano	*	*
*clefF4	*clefF4	*
*k[b-]	*k[b-]	*
=1	=1	=1
4C	4An 4c 4f	.
4CC 4C	4B- 4c 4e	.
=	=	=
4.FF 4.F	4.A 4.c 4.f	.
=||	=||	=||
8r	(24gLL	p
.	24a	.
.	24gJJ)	.
=	=	=
*^	*	*
8B-L	2B-	(8f#XL	.
8c	.	8g	.
8e	.	8a	.
8cJ	.	8b-J	.
=	=	=	=
8AL	4A	8bnL	.
8cJ	.	8cc	.
*v	*v	*	*
4G 4Bn 4f	8ee	.
.	8ddJ)	.
=	=	=
4c 4e	(4b-X 4cc	.
4C	4b- 4cc 4gg	.
=	=	=
4F	4a) 4cc 4ff	.
4FF	4r	.
=	=	=
*-	*-	*-
!!!system-decoration: {(s1,s2)}
